symbols/web/kebab_dining/materialsymbolsrounded/kebab_dining_wght300_48px.svg

<svg xmlns="http://www.w3.org/2000/svg" height="48" width="48"><path d="M13.55 44.8v-8.05H11q-1.7 0-2.9-1.2T6.9 32.6q0-1.75 1.2-2.925Q9.3 28.5 11 28.5h2.55v-3.35h-5.2q-.65 0-1.05-.425T6.9 23.7v-5.4q0-.6.4-1.025.4-.425 1.05-.425h5.2V13.5H11q-1.7 0-2.9-1.2T6.9 9.35q0-1.7 1.2-2.9t2.9-1.2h2.55V3.2q0-.35.25-.575.25-.225.6-.225t.575.225q.225.225.225.575v2.05h2.55q1.75 0 2.95 1.2 1.2 1.2 1.2 2.95 0 1.7-1.2 2.9t-2.95 1.2H15.2v3.35h5.25q.6 0 1.025.425.425.425.425 1.025v5.4q0 .6-.425 1.025-.425.425-1.025.425H15.2v3.35h2.55q1.75 0 2.95 1.2 1.2 1.2 1.2 2.9 0 1.75-1.2 2.95-1.2 1.2-2.95 1.2H15.2v8.05q0 .35-.225.575-.225.225-.575.225t-.6-.225q-.25-.225-.25-.575Zm19.25 0v-8.05h-2.55q-1.7 0-2.925-1.2-1.225-1.2-1.225-2.95 0-1.75 1.225-2.925Q28.55 28.5 30.25 28.5h2.55v-3.35h-5.25q-.6 0-1.025-.425Q26.1 24.3 26.1 23.7v-5.4q0-.6.425-1.025.425-.425 1.025-.425h5.25V13.5h-2.55q-1.7 0-2.925-1.2Q26.1 11.1 26.1 9.35q0-1.7 1.225-2.9t2.925-1.2h2.55V3.2q0-.35.225-.575.225-.225.575-.225t.6.225q.25.225.25.575v2.05H37q1.7 0 2.9 1.2t1.2 2.95q0 1.7-1.2 2.9T37 13.5h-2.55v3.35h5.2q.65 0 1.05.425t.4 1.025v5.4q0 .6-.4 1.025-.4.425-1.05.425h-5.2v3.35H37q1.7 0 2.9 1.2t1.2 2.9q0 1.75-1.2 2.95-1.2 1.2-2.9 1.2h-2.55v8.05q0 .35-.25.575-.25.225-.6.225t-.575-.225q-.225-.225-.225-.575ZM11 11.25h6.75q.8 0 1.325-.55.525-.55.525-1.3 0-.8-.525-1.35T17.75 7.5H11q-.75 0-1.3.55t-.55 1.3q0 .8.55 1.35t1.3.55Zm19.25 0H37q.75 0 1.3-.55t.55-1.3q0-.8-.55-1.35T37 7.5h-6.75q-.75 0-1.3.55t-.55 1.3q0 .8.55 1.35t1.3.55Zm-21.1 11.6H19.6v-3.7H9.15Zm19.25 0h10.45v-3.7H28.4ZM11 34.5h6.75q.8 0 1.325-.575.525-.575.525-1.325t-.525-1.3q-.525-.55-1.325-.55H11q-.75 0-1.3.55t-.55 1.3q0 .75.55 1.325t1.3.575Zm19.25 0H37q.75 0 1.3-.575t.55-1.325q0-.75-.55-1.3t-1.3-.55h-6.75q-.75 0-1.3.55t-.55 1.3q0 .75.55 1.325t1.3.575ZM9.15 11.25V7.5v3.75Zm19.25 0V7.5v3.75ZM9.15 22.85v-3.7Zm19.25 0v-3.7ZM9.15 34.5v-3.75 3.75Zm19.25 0v-3.75 3.75Z"/></svg>

<svg xmlns="http://www.w3.org/2000/svg" height="48" width="48"><path d="M13.55 44.8V36.75H11Q9.3 36.75 8.1 35.55Q6.9 34.35 6.9 32.6Q6.9 30.85 8.1 29.675Q9.3 28.5 11 28.5H13.55V25.15H8.35Q7.7 25.15 7.3 24.725Q6.9 24.3 6.9 23.7V18.3Q6.9 17.7 7.3 17.275Q7.7 16.85 8.35 16.85H13.55V13.5H11Q9.3 13.5 8.1 12.3Q6.9 11.1 6.9 9.35Q6.9 7.65 8.1 6.45Q9.3 5.25 11 5.25H13.55V3.2Q13.55 2.85 13.8 2.625Q14.05 2.4 14.4 2.4Q14.75 2.4 14.975 2.625Q15.2 2.85 15.2 3.2V5.25H17.75Q19.5 5.25 20.7 6.45Q21.9 7.65 21.9 9.4Q21.9 11.1 20.7 12.3Q19.5 13.5 17.75 13.5H15.2V16.85H20.45Q21.05 16.85 21.475 17.275Q21.9 17.7 21.9 18.3V23.7Q21.9 24.3 21.475 24.725Q21.05 25.15 20.45 25.15H15.2V28.5H17.75Q19.5 28.5 20.7 29.7Q21.9 30.9 21.9 32.6Q21.9 34.35 20.7 35.55Q19.5 36.75 17.75 36.75H15.2V44.8Q15.2 45.15 14.975 45.375Q14.75 45.6 14.4 45.6Q14.05 45.6 13.8 45.375Q13.55 45.15 13.55 44.8ZM32.8 44.8V36.75H30.25Q28.55 36.75 27.325 35.55Q26.1 34.35 26.1 32.6Q26.1 30.85 27.325 29.675Q28.55 28.5 30.25 28.5H32.8V25.15H27.55Q26.95 25.15 26.525 24.725Q26.1 24.3 26.1 23.7V18.3Q26.1 17.7 26.525 17.275Q26.95 16.85 27.55 16.85H32.8V13.5H30.25Q28.55 13.5 27.325 12.3Q26.1 11.1 26.1 9.35Q26.1 7.65 27.325 6.45Q28.55 5.25 30.25 5.25H32.8V3.2Q32.8 2.85 33.025 2.625Q33.25 2.4 33.6 2.4Q33.95 2.4 34.2 2.625Q34.45 2.85 34.45 3.2V5.25H37Q38.7 5.25 39.9 6.45Q41.1 7.65 41.1 9.4Q41.1 11.1 39.9 12.3Q38.7 13.5 37 13.5H34.45V16.85H39.65Q40.3 16.85 40.7 17.275Q41.1 17.7 41.1 18.3V23.7Q41.1 24.3 40.7 24.725Q40.3 25.15 39.65 25.15H34.45V28.5H37Q38.7 28.5 39.9 29.7Q41.1 30.9 41.1 32.6Q41.1 34.35 39.9 35.55Q38.7 36.75 37 36.75H34.45V44.8Q34.45 45.15 34.2 45.375Q33.95 45.6 33.6 45.6Q33.25 45.6 33.025 45.375Q32.8 45.15 32.8 44.8ZM11 11.25H17.75Q18.55 11.25 19.075 10.7Q19.6 10.15 19.6 9.4Q19.6 8.6 19.075 8.05Q18.55 7.5 17.75 7.5H11Q10.25 7.5 9.7 8.05Q9.15 8.6 9.15 9.35Q9.15 10.15 9.7 10.7Q10.25 11.25 11 11.25ZM30.25 11.25H37Q37.75 11.25 38.3 10.7Q38.85 10.15 38.85 9.4Q38.85 8.6 38.3 8.05Q37.75 7.5 37 7.5H30.25Q29.5 7.5 28.95 8.05Q28.4 8.6 28.4 9.35Q28.4 10.15 28.95 10.7Q29.5 11.25 30.25 11.25ZM9.15 22.85H19.6V19.15H9.15ZM28.4 22.85H38.85V19.15H28.4ZM11 34.5H17.75Q18.55 34.5 19.075 33.925Q19.6 33.35 19.6 32.6Q19.6 31.85 19.075 31.3Q18.55 30.75 17.75 30.75H11Q10.25 30.75 9.7 31.3Q9.15 31.85 9.15 32.6Q9.15 33.35 9.7 33.925Q10.25 34.5 11 34.5ZM30.25 34.5H37Q37.75 34.5 38.3 33.925Q38.85 33.35 38.85 32.6Q38.85 31.85 38.3 31.3Q37.75 30.75 37 30.75H30.25Q29.5 30.75 28.95 31.3Q28.4 31.85 28.4 32.6Q28.4 33.35 28.95 33.925Q29.5 34.5 30.25 34.5ZM9.15 11.25Q9.15 11.25 9.15 10.7Q9.15 10.15 9.15 9.4Q9.15 8.6 9.15 8.05Q9.15 7.5 9.15 7.5Q9.15 7.5 9.15 8.05Q9.15 8.6 9.15 9.35Q9.15 10.15 9.15 10.7Q9.15 11.25 9.15 11.25ZM28.4 11.25Q28.4 11.25 28.4 10.7Q28.4 10.15 28.4 9.4Q28.4 8.6 28.4 8.05Q28.4 7.5 28.4 7.5Q28.4 7.5 28.4 8.05Q28.4 8.6 28.4 9.35Q28.4 10.15 28.4 10.7Q28.4 11.25 28.4 11.25ZM9.15 22.85V19.15ZM28.4 22.85V19.15ZM9.15 34.5Q9.15 34.5 9.15 33.925Q9.15 33.35 9.15 32.6Q9.15 31.85 9.15 31.3Q9.15 30.75 9.15 30.75Q9.15 30.75 9.15 31.3Q9.15 31.85 9.15 32.6Q9.15 33.35 9.15 33.925Q9.15 34.5 9.15 34.5ZM28.4 34.5Q28.4 34.5 28.4 33.925Q28.4 33.35 28.4 32.6Q28.4 31.85 28.4 31.3Q28.4 30.75 28.4 30.75Q28.4 30.75 28.4 31.3Q28.4 31.85 28.4 32.6Q28.4 33.35 28.4 33.925Q28.4 34.5 28.4 34.5Z"/></svg>
